icons/mouseB.svg

<svg width="24" height="24" viewBox="0 0 24 24" fill="none" xmlns="http://www.w3.org/2000/svg">
<path d="M12.0486 21H11.9486C8.34858 21 5.54858 18.1 5.54858 14.6V9.4C5.54858 5.8 8.44858 3 11.9486 3H12.0486C15.6486 3 18.4486 5.9 18.4486 9.4V14.5C18.5486 18.1 15.6486 21 12.0486 21Z" fill="black"/>
<path fill-rule="evenodd" clip-rule="evenodd" d="M11.9486 3.75C8.85513 3.75 6.29858 6.22184 6.29858 9.4V14.6C6.29858 17.6935 8.77042 20.25 11.9486 20.25H12.0486C15.2385 20.25 17.7868 17.6864 17.6989 14.5208L17.6986 14.5104V9.4C17.6986 6.30655 15.2267 3.75 12.0486 3.75H11.9486ZM4.79858 9.4C4.79858 5.37816 8.04203 2.25 11.9486 2.25H12.0486C16.0704 2.25 19.1986 5.49345 19.1986 9.4V14.4899C19.3046 18.5193 16.0551 21.75 12.0486 21.75H11.9486C7.92675 21.75 4.79858 18.5065 4.79858 14.6V9.4Z" fill="black"/>
<path fill-rule="evenodd" clip-rule="evenodd" d="M12.0486 7.25C12.4628 7.25 12.7986 7.58579 12.7986 8V10C12.7986 10.4142 12.4628 10.75 12.0486 10.75C11.6344 10.75 11.2986 10.4142 11.2986 10V8C11.2986 7.58579 11.6344 7.25 12.0486 7.25Z" fill="white"/>
</svg>

<svg xmlns="http://www.w3.org/2000/svg" fill="none" viewBox="0 0 24 24">
  <path fill="#000" d="M12.049 21h-.1c-3.6 0-6.4-2.9-6.4-6.4V9.4c0-3.6 2.9-6.4 6.4-6.4h.1c3.6 0 6.4 2.9 6.4 6.4v5.1c.1 3.6-2.8 6.5-6.4 6.5Z"/>
  <path fill="#000" fill-rule="evenodd" d="M11.949 3.75a5.63 5.63 0 0 0-5.65 5.65v5.2a5.63 5.63 0 0 0 5.65 5.65h.1c3.19 0 5.738-2.564 5.65-5.73V9.4a5.63 5.63 0 0 0-5.65-5.65h-.1ZM4.799 9.4a7.13 7.13 0 0 1 7.15-7.15h.1a7.13 7.13 0 0 1 7.15 7.15v5.09c.106 4.03-3.144 7.26-7.15 7.26h-.1a7.13 7.13 0 0 1-7.15-7.15V9.4Z" clip-rule="evenodd"/>
  <path fill="#fff" fill-rule="evenodd" d="M12.049 7.25a.75.75 0 0 1 .75.75v2a.75.75 0 0 1-1.5 0V8a.75.75 0 0 1 .75-.75Z" clip-rule="evenodd"/>
</svg>
